svgs/solid/brightness.svg

<svg xmlns="http://www.w3.org/2000/svg" viewBox="0 0 512 512"><!--! Font Awesome Pro 6.1.2 by @fontawesome - https://fontawesome.com License - https://fontawesome.com/license (Commercial License) Copyright 2022 Fonticons, Inc. --><path d="M224 32C224 14.33 238.3 0 256 0C273.7 0 288 14.33 288 32V80C288 97.67 273.7 112 256 112C238.3 112 224 97.67 224 80V32zM352 256C352 309 309 352 256 352C202.1 352 160 309 160 256C160 202.1 202.1 160 256 160C309 160 352 202.1 352 256zM0 256C0 238.3 14.33 224 32 224H80C97.67 224 112 238.3 112 256C112 273.7 97.67 288 80 288H32C14.33 288 0 273.7 0 256zM480 224C497.7 224 512 238.3 512 256C512 273.7 497.7 288 480 288H432C414.3 288 400 273.7 400 256C400 238.3 414.3 224 432 224H480zM256 512C238.3 512 224 497.7 224 480V432C224 414.3 238.3 400 256 400C273.7 400 288 414.3 288 432V480C288 497.7 273.7 512 256 512zM73.37 438.6C60.88 426.1 60.88 405.9 73.37 393.4L105.4 361.4C117.9 348.9 138.1 348.9 150.6 361.4C163.1 373.9 163.1 394.1 150.6 406.6L118.6 438.6C106.1 451.1 85.87 451.1 73.37 438.6zM393.4 73.37C405.9 60.88 426.1 60.88 438.6 73.37C451.1 85.87 451.1 106.1 438.6 118.6L406.6 150.6C394.1 163.1 373.9 163.1 361.4 150.6C348.9 138.1 348.9 117.9 361.4 105.4L393.4 73.37zM438.6 438.6C426.1 451.1 405.9 451.1 393.4 438.6L361.4 406.6C348.9 394.1 348.9 373.9 361.4 361.4C373.9 348.9 394.1 348.9 406.6 361.4L438.6 393.4C451.1 405.9 451.1 426.1 438.6 438.6zM73.37 118.6C60.88 106.1 60.88 85.87 73.37 73.37C85.87 60.88 106.1 60.88 118.6 73.37L150.6 105.4C163.1 117.9 163.1 138.1 150.6 150.6C138.1 163.1 117.9 163.1 105.4 150.6L73.37 118.6z"/></svg>

<svg xmlns="http://www.w3.org/2000/svg" viewBox="0 0 512 512"><!--! Font Awesome Pro 6.2.0 by @fontawesome - https://fontawesome.com License - https://fontawesome.com/license (Commercial License) Copyright 2022 Fonticons, Inc. --><path d="M224 80V32c0-17.7 14.3-32 32-32s32 14.3 32 32V80c0 17.7-14.3 32-32 32s-32-14.3-32-32zM352 256c0 53-43 96-96 96s-96-43-96-96s43-96 96-96s96 43 96 96zM0 256c0-17.7 14.3-32 32-32H80c17.7 0 32 14.3 32 32s-14.3 32-32 32H32c-17.7 0-32-14.3-32-32zm432-32h48c17.7 0 32 14.3 32 32s-14.3 32-32 32H432c-17.7 0-32-14.3-32-32s14.3-32 32-32zM256 512c-17.7 0-32-14.3-32-32V432c0-17.7 14.3-32 32-32s32 14.3 32 32v48c0 17.7-14.3 32-32 32zM73.4 438.6c-12.5-12.5-12.5-32.8 0-45.3l32-32c12.5-12.5 32.8-12.5 45.3 0s12.5 32.8 0 45.3l-32 32c-12.5 12.5-32.8 12.5-45.3 0zm288-333.3l32-32c12.5-12.5 32.8-12.5 45.3 0s12.5 32.8 0 45.3l-32 32c-12.5 12.5-32.8 12.5-45.3 0s-12.5-32.8 0-45.3zm77.3 333.3c-12.5 12.5-32.8 12.5-45.3 0l-32-32c-12.5-12.5-12.5-32.8 0-45.3s32.8-12.5 45.3 0l32 32c12.5 12.5 12.5 32.8 0 45.3zm-333.3-288l-32-32c-12.5-12.5-12.5-32.8 0-45.3s32.8-12.5 45.3 0l32 32c12.5 12.5 12.5 32.8 0 45.3s-32.8 12.5-45.3 0z"/></svg>
